X:1
T:Title
%%score 1 2 3 4
L:1/8
M:2/2
K:F
V:1 treble nm="Part_1"
V:2 treble-8 nm="Part_2"
V:3 treble-8 nm="Part_3"
V:4 bass nm="Part_4"
V:1
 G8 | G4 G4- | G4 G4 | F4 F4 | E4 G4- | G2 F2 E2 D2 | E8 | !fermata!D8 | z8 | F4 G4 | B8 | %11
 A4 G2 A2- | A2 G4 ^F2 | !fermata!G8 | G4 G4 | F4 F4 | G4 G4 | A6 GF | E3 F G4- | G2 F2 F4- | %20
 F4 E4 | !fermata!F8 | F8 | E8 | D4 C4 | F6 ED | E4 E4 | !fermata!D8 | D4 D4 | F8 | G4 F3 G | %31
 A4 B4- | B2 A2 A4- | A4 G4 | A6 F2 | !fermata!F8 | B4 B4 | A8- | A4 G4 | F6 GA | B4 A4- | %41
 A2 G2 G4- | G4 ^F4 | !fermata!G8 |[M:3/2] z12 | G8 F4 | G8 A4 | B8 A4 | G8 F4 | F8 F4 | F8 G4 | %51
 A6 F2 G4 | F2 G2 A2 B2 c4 | B8 A4 | !fermata!B12 |[M:2/2] z4 B4 | B8 | !fermata!A8 | z4 A4 | G8 | %60
 !fermata!F8 | z4 F4 | F4 F4 | G6 F2 | E2 D2 E4 | D8 | z8 | F4 G2 A2 | F2 B4 A2 | B3 A F2 G2 | %70
 A3 G E2 F2 | G3 F D2 E2 | F3 E C2 D2 | E2 DC D4 | z2 G2 F2 D2 | E4 A2 G2 | E2 F4 B2 | A2 F2 G4 | %78
 c2 B2 G2 A2- | A2 d2 c2 A2 | B3 A F2 A2- | A2 G4 ^F2 | G8 |] %83
V:2
 d8 | d4 d4- | d4 G4 | A4 A4 | c8 | B8 | G4 E4 | !fermata!F8 | f4 e4 | d8 | d4 g4 | e2 f2 e2 f2- | %12
 f2 d6 | !fermata!d8 | B4 B4 | A4 d4 | d4 d4 | d8 | G8- | G4 A2 B2 | c8 | !fermata!A8 | A8 | c8 | %24
 F4 A4- | A4 F4 | G4 E4 | !fermata!F8 | d4 d4 | d8 | G4 A4- | A4 G4 | F4 f4 | d8 | d6 cB | %35
 !fermata!A8 | f4 f4 | f8- | f4 d4 | d8 | z4 d4 | B4 c4 | d8 | !fermata!d8 |[M:3/2] B8 B4 | %45
 B4 c4 d4 | d8 d4 | d6 e2 f4 | B4 c4 d4 | d8 d4 | d8 B4 | A8 z4 | f6 g2 a4 | d2 e2 f8 | %54
 !fermata!f12 |[M:2/2] z4 f4 | f8 | !fermata!f8 | z4 F4 | G8 | !fermata!A8 | z4 d4 | d4 d4 | %63
 B4 G4 | G8 | G8 | z8 | z8 | f4 f4 | d3 e f2 e2 | c3 d e2 d2 | B3 c d2 c2 | A3 B c2 B2 | G4 A2 B2 | %74
 G4 d2 B2 | c2 A4 e2 | c2 d2 B4 | f2 d2 _e2 c2- | c2 g2 e2 f2 | d4 z2 f2 | g2 de f4- | f2 d6 | %82
 d8 |] %83
V:3
 G8 | G4 B4- | B4 c4 | d4 d4 | G8- | G8 | G6 A2 | !fermata!B8 | F4 G4 | B8 | B8 | c4 B2 c2 | %12
 d2 B2 A4 | !fermata!G8 | G4 G4 | A4 A4 | B4 B4 | A6 B2 | c4 B4- | B4 A4 | G8 | !fermata!F8 | F8 | %23
 G6 A2 | B4 c4- | c2 B2 B4- | B4 A4 | !fermata!B8 | B4 B4 | A8 | G4 d4 | c4 B4 | c4 A4 | B8 | A8 | %35
 !fermata!d8 | d4 d4 | c8- | c4 B4 | A8 | G4 F4 | G8 | A8 | !fermata!G8 |[M:3/2] G8 F4 | G8 A4 | %46
 B8 A4 | G8 F4 | G8 A4 | A8 A4 | A8 B4 | c6 A2 B2 c2 | d6 cB A4 | B4 c8 | !fermata!B12 | %55
[M:2/2] z4 d4 | d8 | !fermata!c8 | z4 A4 | B4 c4 | !fermata!d8 | z4 A4 | A4 A4 | B8 | c8 | B8 | %66
 F4 G2 A2 | F2 B4 A2 | B4 c4 | B2 d4 c2 | A2 c4 B2 | G2 B4 A2 | F2 A4 G2- | G2 FE F2 D2- | %74
 D2 E2 D2 G2- | G2 FE F2 E2 | A4 GF G2 | F2 B4 AG | A2 G2 c4 | BA B2 A2 d2- | d2 cB d2 c2- | %81
 c2 B2 A4 | G8 |] %83
V:4
 G,,8 | G,,4 G,4- | G,4 E,4 | D,4 D,4 | C,6 B,,A,, | G,,8 | C,8 | !fermata!B,,8 | D,4 C,4 | B,,8 | %10
 G,,4 z2 G,2 | A,2 F,2 G,2 F,2 | D,2 G,2 D,4 | !fermata!G,,8 | G,,4 G,,4 | D,4 D,4 | G,,4 G,,4 | %17
 D,8 | C,4 _E,4- | E,4 F,4 | C,8 | !fermata!D,8 | D,8 | C,8 | B,,4 F,4- | F,4 D,4 | C,8 | %27
 !fermata!B,,8 | G,,4 G,,4 | D,8 | E,4 D,4 | F,4 G,4 | A,4 F,4 | G,8 | !fermata!D,8- | D,8 | %36
 B,,4 B,,4 | F,8- | F,4 G,4 | D,8 | G,,4 D,4 | _E,8 | D,8 | !fermata!G,,8 |[M:3/2] G,,8 D,4 | %45
 _E,8 D,4 | B,,4 G,,4 D,4 | G,,8 D,4 | _E,8 D,4 | D,8 D,4 | D,8 G,4 | F,8 _E,4 | D,6 G,2 F,4 | %53
 G,4 F,8 | !fermata!B,,12 |[M:2/2] z4 B,,4 | B,,8 | !fermata!F,8 | z4 F,4 | _E,8 | !fermata!D,8 | %61
 z4 D,4 | D,4 D,4 | G,8 | C,8 | G,,8 | D,4 _E,2 F,2 | D,2 B,,2 _E,2 F,2 | D,2 B,,2 F,4 | %69
 G,3 F, D,2 E,2 | F,3 E, C,2 D,2 | _E,3 D, B,,2 C,2 | D,3 C, A,,2 B,,2 | C,4 z2 B,,2- | %74
 B,,2 C,2 D,2 G,,2 | C,4 D,2 E,2 | A,,2 D,4 _E,2 | F,2 B,,2 _E,4 | F,2 G,2 C,2 F,2- | %79
 F,2 G,2 A,2 D,2 | G,4 D,2 F,2- | F,2 G,2 D,4 | G,,8 |] %83

